actions/22/go-next-context.svg

<svg xmlns="http://www.w3.org/2000/svg" viewBox="0 0 22 22">
  <defs id="defs3051">
    <style type="text/css" id="current-color-scheme">
      .ColorScheme-Text {
        color:#808080;
      }
      </style>
  </defs>
 <path 
    style="fill:currentColor;fill-opacity:1;stroke:none" 
	d="m2 3v16h14l4-8-4-8h-14m5.427734 4v.591797c-.7107 0-.720703.239159-.720703 1.105469v1.017578c0 .41547-.123616 1.032712-.722656 1.289062.59904.25635.722656.875556.722656 1.291016v1.00781c0 .86631.009983 1.105469.720703 1.105469v.591797c-1.06609 0-1.513672-.352246-1.513672-1.253906v-1.222656c0-.556911-.020485-1.201172-.609375-1.201172h-.304688v-.644532h.304688c.58887 0 .609375-.644261.609375-1.201171v-1.222656c0-.90166.447582-1.253906 1.513672-1.253906m3.136719 0c1.0661 0 1.521485.352246 1.521485 1.253906v1.222656c-.00001.556911.0404 1.201171.61914 1.201171h.294922v.644532h-.294922c-.57874 0-.61914.644261-.61914 1.201172v1.222656c-.00001.90166-.455385 1.253906-1.521485 1.253906v-.591797c.71082 0 .728516-.239159.728516-1.105469v-1.00781c0-.41546.123606-1.034666.722656-1.291016-.59905-.25635-.722656-.873592-.722656-1.289062v-1.017578c0-.86631-.017786-1.105469-.728516-1.105469v-.591797"
    class="ColorScheme-Text"
    />  
</svg>

<svg xmlns="http://www.w3.org/2000/svg" version="1.1" viewBox="0 0 22 22">
 <defs>
  <style id="current-color-scheme" type="text/css">
   .ColorScheme-Text { color:#808080; }
  </style>
 </defs>
 <path class="ColorScheme-Text" d="M 2,3 V 19 H 16 L 20,11 16,3 H 2 M 7.4277,7 V 7.5918 C 6.717,7.5918 6.707,7.831 6.707,8.6973 V 9.7148 C 6.707,10.13 6.5834,10.748 5.9844,11.004 6.5834,11.26 6.707,11.879 6.707,12.295 V 13.303 C 6.707,14.169 6.717,14.408 7.4277,14.408 V 15 C 6.3616,15 5.9141,14.648 5.9141,13.746 V 12.523 C 5.9141,11.967 5.8936,11.322 5.3047,11.322 H 5 V 10.678 H 5.3047 C 5.8936,10.678 5.9141,10.033 5.9141,9.4766 V 8.2539 C 5.9141,7.3522 6.3616,7 7.4277,7 M 10.564,7 C 11.631,7 12.086,7.3522 12.086,8.2539 V 9.4766 C 12.086,10.033 12.126,10.678 12.705,10.678 H 13 V 11.322 H 12.705 C 12.126,11.322 12.086,11.967 12.086,12.523 V 13.746 C 12.086,14.648 11.631,15 10.564,15 V 14.408 C 11.275,14.408 11.293,14.169 11.293,13.303 V 12.295 C 11.293,11.879 11.417,11.26 12.016,11.004 11.417,10.748 11.293,10.13 11.293,9.7148 V 8.6973 C 11.293,7.831 11.275,7.5918 10.564,7.5918 V 7" style="color:#808080;fill:currentColor"/>
</svg>
